X:66
C:Page 34
T:Mr Gibson’s Favourite. MBe.66
S:Matthew Betham MS, Towcett Cumbria, 1815
O:England;Cumbria;Towcett
Z:VMP – Hugh Taylor, 2012
M:6/8
L:1/8
Q:3/8=120
R:.Jig
N:No time signature given, 6/8 assumed
N:No key signature given, and D assumed.
N:NB-The G is written as a crotchet.
K:D
“No key sig in MS”A|d2 c e2 d|f2 e gec|d2 d dfd|B2 A B2 c|
d2 c e2 d|f2 e gec|def gec|d3 d2:|
|:A|FGA FGA|BGA Bcd|ege e2 d|cdB A2 “^NB”G|
FGA FGA|BGA Bcd|efe cAc|d3 d2:|

